import.svg

<svg fill="currentColor" viewBox="0 0 24 24"><path d="m14 12-4-4v3H2v2h8v3m10 2V6a2 2 0 0 0-2-2H6a2 2 0 0 0-2 2v3h2V6h12v12H6v-3H4v3a2 2 0 0 0 2 2h12a2 2 0 0 0 2-2"/></svg>

<svg  viewBox="0 0 24 24" fill="currentColor"><path  d="M14,12L10,8V11H2V13H10V16M20,18V6C20,4.89 19.1,4 18,4H6A2,2 0 0,0 4,6V9H6V6H18V18H6V15H4V18A2,2 0 0,0 6,20H18A2,2 0 0,0 20,18Z"/></svg>
